src/assets/wave-ride.svg

<svg width="1440" height="213" viewBox="0 0 1440 213" fill="none" xmlns="http://www.w3.org/2000/svg">
<path d="M163.978 32.2631C109.011 32.2631 16.9153 10.7544 -22.2614 0H-53V188.874C-18.6451 208.366 285.125 201.645 400.847 188.874C516.568 176.103 681.11 197.612 823.954 209.71C966.799 221.809 1066.25 196.94 1180.16 192.907C1271.29 189.68 1401.36 202.765 1455 209.71V38.9846C1426.07 38.9846 1407.99 26.8859 1333.85 16.1316C1259.72 5.37719 1171.12 10.7544 1115.07 12.7708C1059.01 14.7873 823.954 40.3289 753.436 38.9846C682.918 37.6403 579.854 14.1151 500.295 7.39364C420.736 0.672149 232.688 32.2631 163.978 32.2631Z" fill="#F08F00"/>
</svg>

<svg xmlns="http://www.w3.org/2000/svg" width="1440" height="213" fill="none"><path fill="#F08F00" d="M163.978 32.263C109.011 32.263 16.915 10.754-22.262 0H-53v188.874c34.355 19.492 338.125 12.771 453.847 0s280.263 8.738 423.107 20.836c142.845 12.099 242.296-12.77 356.206-16.803 91.13-3.227 221.2 9.858 274.84 16.803V38.985c-28.93 0-47.01-12.1-121.15-22.853-74.13-10.755-162.73-5.378-218.78-3.361-56.06 2.016-291.116 27.558-361.634 26.214S579.854 14.115 500.295 7.394c-79.559-6.722-267.607 24.87-336.317 24.87"/></svg>
